public/images/logo/logo-open-terms-archive-white-alternative.svg

<svg fill="#fff" viewBox="0 0 206 94" xmlns="http://www.w3.org/2000/svg"><path d="m92.2386 12.5455c0-6.18612-3.8409-9.71311-8.8544-9.71311-5.0412 0-8.8544 3.52699-8.8544 9.71311 0 6.1583 3.8132 9.713 8.8544 9.713 5.0135 0 8.8544-3.527 8.8544-9.713zm-4.0532 0c0 4.0071-1.902 6.1768-4.8012 6.1768-2.9083 0-4.8011-2.1697-4.8011-6.1768 0-4.00715 1.8928-6.17689 4.8011-6.17689 2.8992 0 4.8012 2.16974 4.8012 6.17689zm9.2247 9.4545h3.9979v-6.1307h3.361c4.348 0 6.878-2.5944 6.878-6.37072 0-3.75781-2.483-6.40767-6.777-6.40767h-7.4599zm3.9979-9.3345v-6.30612h2.696c2.308 0 3.425 1.25568 3.425 3.1392 0 1.87432-1.117 3.16692-3.407 3.16692zm15.046 9.3345h12.778v-3.2962h-8.78v-4.5149h8.088v-3.2961h-8.088v-4.50573h8.744v-3.29616h-12.742zm33.946-18.90909h-3.979v11.89209h-.167l-8.161-11.89209h-3.509v18.90909h3.998v-11.9013h.138l8.227 11.9013h3.453zm-76.258 37.29619h5.7891v15.6129h3.9517v-15.6129h5.7891v-3.2962h-15.5299zm20.2974 15.6129h12.7786v-3.2962h-8.7807v-4.5149h8.0877v-3.2961h-8.0877v-4.5057h8.7437v-3.2962h-12.7416zm18.1296 0h3.998v-6.7031h2.918l3.582 6.7031h4.414l-4.017-7.3494c2.151-.9233 3.343-2.7976 3.343-5.3828 0-3.7579-2.484-6.1769-6.777-6.1769h-7.461zm3.998-9.9162v-5.7244h2.696c2.308 0 3.426 1.0248 3.426 2.9084 0 1.8742-1.118 2.816-3.407 2.816zm15.275-8.9929v18.9091h3.878v-12.3537h.157l4.893 12.2614h2.641l4.893-12.2152h.157v12.3075h3.878v-18.9091h-4.93l-5.208 12.7046h-.221l-5.208-12.7046zm36.259 5.4382h3.831c-.055-3.37-2.825-5.6967-7.035-5.6967-4.146 0-7.183 2.2898-7.165 5.7244-.009 2.7884 1.957 4.3857 5.152 5.152l2.059.5171c2.059.4985 3.204 1.0894 3.213 2.3636-.009 1.3849-1.32 2.3267-3.352 2.3267-2.077 0-3.573-.9602-3.702-2.853h-3.869c.102 4.0902 3.029 6.2046 7.618 6.2046 4.616 0 7.331-2.2067 7.34-5.6691-.009-3.1484-2.382-4.8196-5.669-5.5582l-1.699-.4063c-1.644-.3785-3.019-.9879-2.992-2.3451 0-1.2188 1.081-2.1144 3.038-2.1144 1.911 0 3.084.8679 3.232 2.3544zm-89.9796 47.4709 1.4035-4.3118h6.8231l1.4034 4.3118h4.2841l-6.5185-18.9091h-5.1519l-6.5277 18.9091zm2.4191-7.4325 2.3267-7.1556h.1477l2.3267 7.1556zm15.9809 7.4325h3.9976v-6.7031h2.918l3.582 6.7031h4.414l-4.017-7.3494c2.152-.9233 3.343-2.7976 3.343-5.3828 0-3.7579-2.484-6.1769-6.777-6.1769h-7.4606zm3.9976-9.9162v-5.7244h2.696c2.309 0 3.426 1.0248 3.426 2.9084 0 1.8742-1.117 2.816-3.407 2.816zm31.959-2.3729c-.526-4.3671-3.832-6.8785-8.208-6.8785-4.995 0-8.808 3.527-8.808 9.7131 0 6.1676 3.748 9.713 8.808 9.713 4.847 0 7.774-3.2223 8.208-6.7031l-4.044-.0185c-.379 2.022-1.967 3.1854-4.1 3.1854-2.871 0-4.819-2.1328-4.819-6.1768 0-3.9333 1.92-6.1769 4.847-6.1769 2.188 0 3.767 1.2649 4.072 3.3423zm5.077 12.2891h3.998v-7.8111h8.115v7.8111h3.989v-18.9091h-3.989v7.8019h-8.115v-7.8019h-3.998zm25.606-18.9091h-3.998v18.9091h3.998zm8.915 0h-4.441l6.528 18.9091h5.152l6.519-18.9091h-4.432l-4.58 14.3665h-.175zm18.243 18.9091h12.779v-3.2962h-8.781v-4.5149h8.088v-3.2961h-8.088v-4.5057h8.744v-3.2962h-12.742z"/><path d="m5.10938 31-4.330132-7.5h8.660252z"/><path d="m4.86836 25.1462c-.96148-.0339-1.71951-.842-1.62136-1.799.5269-5.138 2.57454-10.0174 5.90017-14.0035 3.69863-4.43316 8.76763-7.50916 14.40763-8.743017 5.6401-1.233856 11.5304-.5553717 16.7422 1.928477 5.2119 2.48385 9.4487 6.63175 12.0426 11.78974 2.5938 5.1579 3.3971 11.0325 2.2832 16.6975s-4.0817 10.7981-8.4354 14.5899-9.8456 6.0267-15.6099 6.3523c-5.1829.2928-10.3209-.9731-14.7597-3.6139-.8268-.4919-1.0234-1.5823-.4773-2.3743.5462-.7921 1.628-.9849 2.4599-.5016 3.7976 2.2064 8.1703 3.2605 12.5807 3.0114 4.9918-.282 9.7478-2.2174 13.5181-5.5011 3.7703-3.2838 6.3404-7.729 7.3051-12.6349.9646-4.9059.269-9.9933-1.9773-14.4601-2.2463-4.4667-5.9154-8.05884-10.4289-10.20985-4.5134-2.15101-9.6144-2.73858-14.4987-1.67006s-9.274 3.73234-12.477 7.57141c-2.82991 3.3919-4.59123 7.5307-5.08456 11.895-.10807.956-.90799 1.7094-1.86948 1.6756z"/><path d="m23.1113 17.6315c0-.9302.7541-1.6842 1.6842-1.6842h12.6316c.9302 0 1.6842.754 1.6842 1.6842 0 .9301-.754 1.6842-1.6842 1.6842h-12.6316c-.9301 0-1.6842-.7541-1.6842-1.6842z"/><path d="m23.1113 23.5262c0-.9302.7541-1.6842 1.6842-1.6842h9.9256c.9301 0 1.6842.754 1.6842 1.6842s-.7541 1.6842-1.6842 1.6842h-9.9256c-.9301 0-1.6842-.754-1.6842-1.6842z"/><path d="m23.1113 29.421c0-.9302.7541-1.6843 1.6842-1.6843h11.6316c.9302 0 1.6842.7541 1.6842 1.6843 0 .9301-.754 1.6842-1.6842 1.6842h-11.6316c-.9301 0-1.6842-.7541-1.6842-1.6842z"/><path d="m23.1113 35.3157c0-.9302.7541-1.6842 1.6842-1.6842h3.6515c.9302 0 1.6842.754 1.6842 1.6842s-.754 1.6842-1.6842 1.6842h-3.6515c-.9301 0-1.6842-.754-1.6842-1.6842z"/></svg>

<svg viewBox="0 0 206 94" fill="white" xmlns="http://www.w3.org/2000/svg">
	<path d="M92.2386 12.5455C92.2386 6.35938 88.3977 2.83239 83.3842 2.83239C78.343 2.83239 74.5298 6.35938 74.5298 12.5455C74.5298 18.7038 78.343 22.2585 83.3842 22.2585C88.3977 22.2585 92.2386 18.7315 92.2386 12.5455ZM88.1854 12.5455C88.1854 16.5526 86.2834 18.7223 83.3842 18.7223C80.4759 18.7223 78.5831 16.5526 78.5831 12.5455C78.5831 8.53835 80.4759 6.36861 83.3842 6.36861C86.2834 6.36861 88.1854 8.53835 88.1854 12.5455ZM97.4101 22H101.408V15.8693H104.769C109.117 15.8693 111.647 13.2749 111.647 9.49858C111.647 5.74077 109.164 3.09091 104.87 3.09091H97.4101V22ZM101.408 12.6655V6.35938H104.104C106.412 6.35938 107.529 7.61506 107.529 9.49858C107.529 11.3729 106.412 12.6655 104.122 12.6655H101.408ZM116.454 22H129.232V18.7038H120.452V14.1889H128.54V10.8928H120.452V6.38707H129.196V3.09091H116.454V22ZM150.4 3.09091H146.421V14.983H146.254L138.093 3.09091H134.584V22H138.582V10.0987H138.72L146.947 22H150.4V3.09091ZM74.142 40.3871H79.9311V56H83.8828V40.3871H89.6719V37.0909H74.142V40.3871ZM94.4394 56H107.218V52.7038H98.4373V48.1889H106.525V44.8928H98.4373V40.3871H107.181V37.0909H94.4394V56ZM112.569 56H116.567V49.2969H119.485L123.067 56H127.481L123.464 48.6506C125.615 47.7273 126.807 45.853 126.807 43.2678C126.807 39.5099 124.323 37.0909 120.03 37.0909H112.569V56ZM116.567 46.0838V40.3594H119.263C121.571 40.3594 122.689 41.3842 122.689 43.2678C122.689 45.142 121.571 46.0838 119.282 46.0838H116.567ZM131.842 37.0909V56H135.72V43.6463H135.877L140.77 55.9077H143.411L148.304 43.6925H148.461V56H152.339V37.0909H147.409L142.201 49.7955H141.98L136.772 37.0909H131.842ZM168.101 42.5291H171.932C171.877 39.1591 169.107 36.8324 164.897 36.8324C160.751 36.8324 157.714 39.1222 157.732 42.5568C157.723 45.3452 159.689 46.9425 162.884 47.7088L164.943 48.2259C167.002 48.7244 168.147 49.3153 168.156 50.5895C168.147 51.9744 166.836 52.9162 164.804 52.9162C162.727 52.9162 161.231 51.956 161.102 50.0632H157.233C157.335 54.1534 160.262 56.2678 164.851 56.2678C169.467 56.2678 172.182 54.0611 172.191 50.5987C172.182 47.4503 169.809 45.7791 166.522 45.0405L164.823 44.6342C163.179 44.2557 161.804 43.6463 161.831 42.2891C161.831 41.0703 162.912 40.1747 164.869 40.1747C166.78 40.1747 167.953 41.0426 168.101 42.5291ZM78.1214 90L79.5249 85.6882H86.348L87.7514 90H92.0355L85.517 71.0909H80.3651L73.8374 90H78.1214ZM80.5405 82.5675L82.8672 75.4119H83.0149L85.3416 82.5675H80.5405ZM96.5214 90H100.519V83.2969H103.437L107.019 90H111.433L107.416 82.6506C109.568 81.7273 110.759 79.853 110.759 77.2678C110.759 73.5099 108.275 71.0909 103.982 71.0909H96.5214V90ZM100.519 80.0838V74.3594H103.215C105.524 74.3594 106.641 75.3842 106.641 77.2678C106.641 79.142 105.524 80.0838 103.234 80.0838H100.519ZM132.478 77.7109C131.952 73.3438 128.646 70.8324 124.27 70.8324C119.275 70.8324 115.462 74.3594 115.462 80.5455C115.462 86.7131 119.21 90.2585 124.27 90.2585C129.117 90.2585 132.044 87.0362 132.478 83.5554L128.434 83.5369C128.055 85.5589 126.467 86.7223 124.334 86.7223C121.463 86.7223 119.515 84.5895 119.515 80.5455C119.515 76.6122 121.435 74.3686 124.362 74.3686C126.55 74.3686 128.129 75.6335 128.434 77.7109H132.478ZM137.555 90H141.553V82.1889H149.668V90H153.657V71.0909H149.668V78.8928H141.553V71.0909H137.555V90ZM163.161 71.0909H159.163V90H163.161V71.0909ZM172.076 71.0909H167.635L174.163 90H179.315L185.834 71.0909H181.402L176.822 85.4574H176.647L172.076 71.0909ZM190.319 90H203.098V86.7038H194.317V82.1889H202.405V78.8928H194.317V74.3871H203.061V71.0909H190.319V90Z" />
	<path d="M5.10938 31L0.779248 23.5L9.4395 23.5L5.10938 31Z" />
	<path d="M4.86836 25.1462C3.90688 25.1123 3.14885 24.3042 3.247 23.3472C3.7739 18.2092 5.82154 13.3298 9.14717 9.3437C12.8458 4.91054 17.9148 1.83454 23.5548 0.600683C29.1949 -0.633173 35.0852 0.0453113 40.297 2.52916C45.5089 5.01301 49.7457 9.16091 52.3396 14.3189C54.9334 19.4768 55.7367 25.3514 54.6228 31.0164C53.5089 36.6814 50.5411 41.8145 46.1874 45.6063C41.8337 49.3981 36.3418 51.633 30.5775 51.9586C25.3946 52.2514 20.2566 50.9855 15.8178 48.3447C14.991 47.8528 14.7944 46.7624 15.3405 45.9704V45.9704C15.8867 45.1783 16.9685 44.9855 17.8004 45.4688C21.598 47.6752 25.9707 48.7293 30.3811 48.4802C35.3729 48.1982 40.1289 46.2628 43.8992 42.9791C47.6695 39.6953 50.2396 35.2501 51.2043 30.3442C52.1689 25.4383 51.4733 20.3509 49.227 15.8841C46.9807 11.4174 43.3116 7.82526 38.7981 5.67425C34.2847 3.52324 29.1837 2.93567 24.2994 4.00419C19.4151 5.07271 15.0254 7.73653 11.8224 11.5756C8.99249 14.9675 7.23117 19.1063 6.73784 23.4706C6.62977 24.4266 5.82985 25.18 4.86836 25.1462V25.1462Z" />
	<path d="M23.1113 17.6315C23.1113 16.7013 23.8654 15.9473 24.7955 15.9473H37.4271C38.3573 15.9473 39.1113 16.7013 39.1113 17.6315C39.1113 18.5616 38.3573 19.3157 37.4271 19.3157H24.7955C23.8654 19.3157 23.1113 18.5616 23.1113 17.6315Z" />
	<path d="M23.1113 23.5262C23.1113 22.596 23.8654 21.842 24.7955 21.842H34.7211C35.6512 21.842 36.4053 22.596 36.4053 23.5262C36.4053 24.4564 35.6512 25.2104 34.7211 25.2104H24.7955C23.8654 25.2104 23.1113 24.4564 23.1113 23.5262Z" />
	<path d="M23.1113 29.421C23.1113 28.4908 23.8654 27.7367 24.7955 27.7367H36.4271C37.3573 27.7367 38.1113 28.4908 38.1113 29.421C38.1113 30.3511 37.3573 31.1052 36.4271 31.1052H24.7955C23.8654 31.1052 23.1113 30.3511 23.1113 29.421Z" />
	<path d="M23.1113 35.3157C23.1113 34.3855 23.8654 33.6315 24.7955 33.6315H28.447C29.3772 33.6315 30.1312 34.3855 30.1312 35.3157C30.1312 36.2459 29.3772 36.9999 28.447 36.9999H24.7955C23.8654 36.9999 23.1113 36.2459 23.1113 35.3157Z" />
</svg>
